X:10
T:Bishop. VWMLa.010
%%VWML:Anon2-3049-p8-0
F:http://www.vwml.org/record/Anon2/3049/p8
S:Anon. MS, late 18thC, Vaughan Williams Mem. Library
N:Time signature in MS is 2/4.
O:England;Yorkshire
Z:vmp/efdss.Simon Wilson. Reviewed PJH 2008.
M:6/8
L:1/8
Q:3/8=120
K:G
g3 d2c|B3 G2D|EGE FAF|GBc def|\
g3 d2c|B3 G2D|EGE FAF|G3 G,3:|
|:ede aed|dcd gdB|cBc ecA|AFD AFD|\
ede afd|dcd gdB|cBc AFD|GDB, G,3:|
T:Castle Down. VWMLa.011
T:Fourpence Ha'penny Farthing,aka. VWMLa.011
R:Jig
S:Anon. MS, late 18thC, Vaughan Williams Mem. Library
O:England;Yorkshire
Z:vmp/efdss.Simon Wilson. Reviewed PJH 2008.
M:6/8
L:1/8
Q:3/8=120
K:G
G2A B2G|c2A B2G|(B/c/d).B AGF|E3 E3|\
G2A B2G|c2A B2G|(B/c/d).B AGF|D3 D3:|
|:B2c d2B|e2c d2B|efg dcB|A3- ABc|\
dcB edc|fed gfe dcB AGF|G3 G3:|
